X:1
T:Arabesque No. 1 (theme)
C:Claude Debussy
O:L. 66, No. 1
M:4/4
L:1/8
Q:1/4=120
K:E
% A section — opening arabesque theme (Deux Arabesques)
E2 |(3GAB (3AGE (3GAB A2 | G4 E4 | (3EFG (3FGF A2 G2 | E8 |
(3GAB (3AGE (3GAB c2 | B4 A4 | (3GFE (3FEF E4 | E8 |
(3GAB (3BAc B4 | A3 G F2 E2 | (3EFG A2 B4 | G8 |
(3cBA (3BAG (3AGF E2 | F4 E4 | (3EGA B3 A G2 | E8 |]
